X:4776
T:Old Black Joe
O:england
S:Bacon (MDT)
N:
H:abcTranscriber: Alex Boster <boster@acm.org>
A:Badby
R:
P:${1}\over{2}$A(AB)$^4$A
%P:A.(AB)4.A
K:Bb
M:6/8
L:1/8
P:A
F | F2 B BAB | c2 d edc | fdB FBe | dec B3 :|
P:B
|: BAB c2 f | c2 f cAF | BAB d2 c | BAG F2 E |
DFF B2 B | c2 d edc | fdB FBe  | dec B3  :|


